X:6190
T:German Air. GS.040
T:Lieber Augustine,aka. GS.040
M:3/8
L:1/8
Q:30
S:George Spencer m/s, Leeds,1831
R:Waltz
O:England
A:Leeds
N:Key signature is given as 3/4 The top note of the chord at the end of
N:the A music is obscured by a blot, but see No. 76, to which this is
N:identical. Chords are shown as crochets in MS...I learnt this tune when
N:I was seven, as a song, words something about'Ah, my dearest Augustine,
N:all is gone by'.  Probably composed..Cherri.
H:1831
Z:vmp.Cherri Graebe
K:BB major
.f(f/2g/2)(f/2e/2) | (dB).B | .c.A.F | .d.B.F | .f(f/
2g/2)(f/2e/2) |.d.B.B |.c.A.F | [D3B3] :||:!
.c.A.F | .d.B.G | .e.c.A | fdB | .f(f/2g/2)(f/2e/2)
| dBB | cAF | [D3B3] :||


